dist/icons/svgs/ellipsis-v-outline.svg

<svg xmlns="http://www.w3.org/2000/svg" width="24" height="24" fill="currentcolor" class="icon-ellipsis-v-outline" viewBox="0 0 24 24">
  <path d="M12.5 16.375C13.1641 16.375 13.75 16.7656 14.1016 17.3125C14.4531 17.8984 14.4531 18.6406 14.1016 19.1875C13.75 19.7734 13.1641 20.125 12.5 20.125C11.7969 20.125 11.2109 19.7734 10.8594 19.1875C10.5078 18.6406 10.5078 17.8984 10.8594 17.3125C11.2109 16.7656 11.7969 16.375 12.5 16.375ZM12.5 10.125C13.1641 10.125 13.75 10.5156 14.1016 11.0625C14.4531 11.6484 14.4531 12.3906 14.1016 12.9375C13.75 13.5234 13.1641 13.875 12.5 13.875C11.7969 13.875 11.2109 13.5234 10.8594 12.9375C10.5078 12.3906 10.5078 11.6484 10.8594 11.0625C11.2109 10.5156 11.7969 10.125 12.5 10.125ZM14.375 5.75C14.375 6.45312 13.9844 7.03906 13.4375 7.39062C12.8516 7.74219 12.1094 7.74219 11.5625 7.39062C10.9766 7.03906 10.625 6.45312 10.625 5.75C10.625 5.08594 10.9766 4.5 11.5625 4.14844C12.1094 3.79688 12.8516 3.79688 13.4375 4.14844C13.9844 4.5 14.375 5.08594 14.375 5.75Z"/>
</svg>

<svg xmlns="http://www.w3.org/2000/svg" width="24" height="24" fill="currentColor" class="icon-ellipsis-v-outline" viewBox="0 0 24 24">
  <path d="M12.5 16.375c.664 0 1.25.39 1.602.938.351.585.351 1.328 0 1.875-.352.585-.938.937-1.602.937a1.87 1.87 0 0 1-1.64-.937c-.352-.547-.352-1.29 0-1.875.35-.547.937-.938 1.64-.938m0-6.25c.664 0 1.25.39 1.602.938.351.585.351 1.328 0 1.874-.352.586-.938.938-1.602.938a1.87 1.87 0 0 1-1.64-.937c-.352-.547-.352-1.29 0-1.876.35-.546.937-.937 1.64-.937m1.875-4.375c0 .703-.39 1.29-.937 1.64-.586.352-1.329.352-1.876 0a1.87 1.87 0 0 1-.937-1.64c0-.664.352-1.25.938-1.602.546-.351 1.289-.351 1.874 0 .547.352.938.938.938 1.602"/>
</svg>
